public/mobile.svg

<svg width="15" height="24" viewBox="0 0 15 25" fill="none" xmlns="http://www.w3.org/2000/svg">
<path d="M7.36768 19.5134C6.81539 19.5134 6.36768 20.0018 6.36768 20.6043C6.36768 21.2068 6.81539 21.6952 7.36768 21.6952C7.91996 21.6952 8.36768 21.2068 8.36768 20.6043C8.36768 20.0018 7.91996 19.5134 7.36768 19.5134Z" fill="#0F0F0F"/>
<path fill-rule="evenodd" clip-rule="evenodd" d="M14.3677 4.24068C14.3677 2.43321 13.0245 0.967957 11.3677 0.967957H3.36768C1.71082 0.967957 0.367676 2.43321 0.367676 4.24068V21.6952C0.367676 23.5027 1.71082 24.968 3.36768 24.968H11.3677C13.0245 24.968 14.3677 23.5027 14.3677 21.6952V4.24068ZM12.3677 4.24068C12.3677 3.63819 11.92 3.14977 11.3677 3.14977H3.36768C2.81539 3.14977 2.36768 3.63819 2.36768 4.24068V16.2407H12.3677V4.24068ZM2.36768 21.6952V18.4225H12.3677V21.6952C12.3677 22.2977 11.92 22.7861 11.3677 22.7861H3.36768C2.81539 22.7861 2.36768 22.2977 2.36768 21.6952Z" fill="#0F0F0F"/>
</svg>

<svg width="15" height="24" viewBox="0 0 15 25" fill="none" xmlns="http://www.w3.org/2000/svg"><path d="M7.368 19.513c-.553 0-1 .489-1 1.091 0 .603.447 1.091 1 1.091.552 0 1-.488 1-1.09 0-.603-.448-1.092-1-1.092Z" fill="#0F0F0F"/><path fill-rule="evenodd" clip-rule="evenodd" d="M14.368 4.24c0-1.807-1.344-3.272-3-3.272h-8c-1.657 0-3 1.465-3 3.273v17.454c0 1.808 1.343 3.273 3 3.273h8c1.656 0 3-1.465 3-3.273V4.241Zm-2 0c0-.602-.448-1.09-1-1.09h-8c-.553 0-1 .488-1 1.09v12h10v-12Zm-10 17.455v-3.273h10v3.273c0 .603-.448 1.091-1 1.091h-8c-.553 0-1-.488-1-1.09Z" fill="#0F0F0F"/></svg>
